Newaita-dark/apps/48/korg-todo.svg

<svg height="48" viewBox="0 0 48 48" width="48" xmlns="http://www.w3.org/2000/svg" xmlns:xlink="http://www.w3.org/1999/xlink"><linearGradient id="a" gradientUnits="userSpaceOnUse" x1="22.8225" x2="22.8225" y1="42.0509045" y2="44.03547050005"><stop offset="0" stop-opacity=".27451"/><stop offset="1" stop-opacity="0"/></linearGradient><linearGradient id="b"><stop offset="0" stop-opacity=".313726"/><stop offset=".222222" stop-opacity=".27451"/><stop offset="1" stop-opacity="0"/></linearGradient><radialGradient id="c" cx="450.908936" cy="189.579361" gradientTransform="matrix(.00000026 -.117199 -.210958 -.00000015 77.203692 95.392999)" gradientUnits="userSpaceOnUse" r="21.166656" xlink:href="#b"/><radialGradient id="d" cx="450.908936" cy="189.579361" gradientTransform="matrix(-.00000026 .117199 .210958 .00000015 -31.5587 -11.291218)" gradientUnits="userSpaceOnUse" r="21.166656" xlink:href="#b"/><radialGradient id="e" cx="450.908936" cy="189.579361" gradientTransform="matrix(-.00000026 -.117199 .210958 -.00000015 -31.5587 95.392999)" gradientUnits="userSpaceOnUse" r="21.166656" xlink:href="#b"/><radialGradient id="f" cx="450.908936" cy="189.579361" gradientTransform="matrix(.00000026 .117199 -.210958 .00000015 77.203689 -11.291219)" gradientUnits="userSpaceOnUse" r="21.166656" xlink:href="#b"/><linearGradient id="g" gradientUnits="userSpaceOnUse" x1="14.88424149995" x2="14.88424149995" y1="42.0509015" y2="4.3441580001"><stop offset="0" stop-color="#5c6bc0"/><stop offset="1" stop-color="#7986cb"/></linearGradient><linearGradient id="h"><stop offset="0" stop-color="#e0e0e0"/><stop offset="1" stop-color="#eee"/></linearGradient><linearGradient id="i" gradientUnits="userSpaceOnUse" x1="22.82250084352" x2="22.82250375005" xlink:href="#h" y1="42.0509015" y2="4.34415649995"/><linearGradient id="j" gradientUnits="userSpaceOnUse" x1="22.822532" x2="22.822532" xlink:href="#h" y1="42.05096580616" y2="4.34417266504"/><path d="m7.9375 41.902344h29.769531v2.207031h-29.769531zm0 0" fill="url(#a)"/><path d="m37.707031 42.050781h3.96875v-1.984375h-3.96875zm0 0" fill="url(#c)"/><path d="m7.9375 42.050781h-3.96875v1.984375h3.96875zm0 0" fill="url(#d)"/><path d="m7.9375 42.050781h-3.96875v-1.984375h3.96875zm0 0" fill="url(#e)"/><path d="m37.707031 42.050781h3.96875v1.984375h-3.96875zm0 0" fill="url(#f)"/><path d="m5.953125 4.34375h33.738281c1.097656 0 1.984375.890625 1.984375 1.984375v33.738281c0 1.097656-.886719 1.984375-1.984375 1.984375h-33.738281c-1.09375 0-1.984375-.886719-1.984375-1.984375v-33.738281c0-1.09375.890625-1.984375 1.984375-1.984375zm0 0" fill="url(#g)"/><path d="m5.953125 4.5c-1.097656 0-1.984375.886719-1.984375 1.984375v.25c0-1.101563.886719-1.988281 1.984375-1.984375h33.738281c1.097656-.003906 1.984375.882812 1.984375 1.984375v-.25c0-1.097656-.886719-1.984375-1.984375-1.984375zm0 0" fill="#e6e6e6" fill-opacity=".392157"/><path d="m5.953125 41.898438c-1.097656 0-1.984375-.886719-1.984375-1.984376v-.25c0 1.101563.886719 1.984376 1.984375 1.984376h33.738281c1.097656 0 1.984375-.882813 1.984375-1.984376v.25c0 1.097657-.886719 1.984376-1.984375 1.984376zm0 0" fill-opacity=".196078"/><path d="m63.493937-168.671091h359.840637c11.707215 0 21.164645 9.499093 21.164645 21.164646v359.840637c0 11.707215-9.45743 21.164645-21.164645 21.164645h-359.840637c-11.665553 0-21.164646-9.45743-21.164646-21.164645v-359.840637c0-11.665553 9.499093-21.164646 21.164646-21.164646zm0 0" fill="none" stroke="#212121" stroke-linecap="round" stroke-width="3" transform="matrix(.093759 0 0 .093759 0 20.158175)"/><path d="m43.621094 9.257812c-.523438.015626-1.019532.234376-1.382813.609376l-19.496093 19.496093-7.511719-6.679687c-.535157-.488282-1.296875-.652344-1.984375-.429688-.691406.226563-1.207032.808594-1.351563 1.519532-.140625.710937.109375 1.445312.660157 1.921874l8.929687 7.9375c.796875.707032 2.007813.671876 2.761719-.082031l20.839844-20.835937c.59375-.578125.773437-1.464844.449218-2.230469-.324218-.765625-1.085937-1.25-1.914062-1.226563zm0 0" fill="url(#i)"/><path d="m43.621094 9.257812c-.523438.015626-1.019532.234376-1.382813.609376l-19.496093 19.496093-7.511719-6.679687c-.644531-.585938-1.589844-.695313-2.351563-.265625-.757812.425781-1.152344 1.292969-.984375 2.148437.144531-.710937.660157-1.292968 1.351563-1.515625.6875-.226562 1.449218-.0625 1.984375.425781l7.511719 6.679688 19.496093-19.496094c.363281-.375.859375-.59375 1.382813-.609375.980468-.03125 1.839844.652344 2.035156 1.617188.121094-.601563-.042969-1.226563-.4375-1.695313-.394531-.472656-.984375-.734375-1.597656-.714844zm0 0" fill="#fff" fill-opacity=".954839"/><path d="m41.675781 16.160156-17.429687 17.429688c-.753906.753906-1.964844.789062-2.761719.082031l-8.929687-7.941406c-.3125-.269531-.535157-.628907-.632813-1.027344-.191406.738281.054687 1.523437.632813 2.019531l8.929687 7.941406c.796875.707032 2.007813.671876 2.761719-.082031l17.429687-17.429687zm0 0" fill-opacity=".235294"/><path d="m465.247238-116.259429c-5.5828.16665-10.873962 2.499761-14.748592 6.499379l-207.938476 207.938476-80.117349-71.243196c-5.707788-5.207836-13.832013-6.957669-21.164646-4.582896-7.374296 2.416436-12.87377 8.624176-14.41529 16.206786-1.499857 7.582609 1.166555 15.415194 7.040994 20.498042l95.240905 84.658582c8.499189 7.540947 21.414622 7.165983 29.455521-.874916l222.270441-222.228778c6.332728-6.166078 8.249212-15.623508 4.791209-23.789395s-11.582227-13.33206-20.414717-13.082084zm0 0" fill="none" stroke="#212121" stroke-linecap="round" stroke-linejoin="round" stroke-width="3" transform="matrix(.093759 0 0 .093759 0 20.158175)"/><path d="m9.921875 7.75c-1.398437 0-2.546875 1.148438-2.546875 2.546875v25.800781c0 1.402344 1.148438 2.546875 2.546875 2.546875h25.800781c1.402344 0 2.546875-1.144531 2.546875-2.546875v-13.722656l-1.125 1.125v12.597656c0 .796875-.625 1.421875-1.421875 1.421875h-25.800781c-.796875 0-1.421875-.625-1.421875-1.421875v-25.800781c0-.796875.625-1.421875 1.421875-1.421875h25.800781c.796875 0 1.421875.625 1.421875 1.421875v1.816406l1.125-1.125v-.691406c0-1.398437-1.144531-2.546875-2.546875-2.546875zm0 0" fill="url(#j)"/><path d="m9.921875 7.75c-1.398437 0-2.546875 1.148438-2.546875 2.546875v.421875c0-1.402344 1.148438-2.550781 2.546875-2.550781h25.800781c1.402344 0 2.546875 1.148437 2.546875 2.550781v-.421875c0-1.398437-1.144531-2.546875-2.546875-2.546875zm28.347656 14.625-1.125 1.125v.421875l1.125-1.125zm-29.769531 13.722656v.417969c0 .796875.625 1.421875 1.421875 1.421875h25.800781c.796875 0 1.421875-.625 1.421875-1.421875v-.417969c0 .796875-.625 1.421875-1.421875 1.421875h-25.800781c-.796875 0-1.421875-.625-1.421875-1.421875zm0 0" fill="#fafafa"/><path d="m9.921875 8.929688c-.796875 0-1.421875.625-1.421875 1.421874v.746094c0-.796875.625-1.421875 1.421875-1.421875h25.800781c.796875 0 1.421875.625 1.421875 1.421875v-.746094c0-.796874-.625-1.421874-1.421875-1.421874zm28.347656 2.113281-1.125 1.125v.742187l1.125-1.125v-.6875c0-.019531 0-.035156 0-.054687zm-30.894531 25.109375v.746094c0 1.398437 1.148438 2.546874 2.546875 2.546874h25.800781c1.402344 0 2.546875-1.148437 2.546875-2.546874v-.746094c0 1.402344-1.144531 2.546875-2.546875 2.546875h-25.800781c-1.398437 0-2.546875-1.144531-2.546875-2.546875zm0 0" fill-opacity=".235294"/><path d="m399.961827 312.411128c-56.372573 0-102.667367 46.294794-102.667367 102.667366v1040.058214c0 56.530038 46.294794 102.667367 102.667367 102.667367h1040.058214c56.530038 0 102.667366-46.137329 102.667366-102.667367v-553.175549l-45.350002 45.350002v507.825547c0 32.122919-25.194446 57.317365-57.317364 57.317365h-1040.058214c-32.122919 0-57.317365-25.194446-57.317365-57.317365v-1040.058214c0-32.122918 25.194446-57.317364 57.317365-57.317364h1040.058214c32.122918 0 57.317364 25.194446 57.317364 57.317364v73.221358l45.350002-45.350002v-27.871356c0-56.372572-46.137328-102.667366-102.667366-102.667366zm0 0" fill="none" stroke="#212121" stroke-linecap="round" stroke-linejoin="round" stroke-width="11.338583" transform="scale(.0248071)"/></svg>

<?xml version="1.0" encoding="UTF-8"?>
<svg xmlns="http://www.w3.org/2000/svg" xmlns:xlink="http://www.w3.org/1999/xlink" width="48px" height="48px" viewBox="0 0 48 48" version="1.1">
<defs>
<linearGradient id="linear0" gradientUnits="userSpaceOnUse" x1="254" y1="233.5" x2="254" y2="254.666672" gradientTransform="matrix(0.093759,0,0,0.093759,-0.992286,20.158178)">
<stop offset="0" style="stop-color:rgb(0%,0%,0%);stop-opacity:0.27451;"/>
<stop offset="1" style="stop-color:rgb(0%,0%,0%);stop-opacity:0;"/>
</linearGradient>
<radialGradient id="radial0" gradientUnits="userSpaceOnUse" cx="450.908936" cy="189.579361" fx="450.908936" fy="189.579361" r="21.166656" gradientTransform="matrix(0.000000261256,-0.117199,-0.210958,-0.000000152308,77.203692,95.392999)">
<stop offset="0" style="stop-color:rgb(0%,0%,0%);stop-opacity:0.313726;"/>
<stop offset="0.222222" style="stop-color:rgb(0%,0%,0%);stop-opacity:0.27451;"/>
<stop offset="1" style="stop-color:rgb(0%,0%,0%);stop-opacity:0;"/>
</radialGradient>
<radialGradient id="radial1" gradientUnits="userSpaceOnUse" cx="450.908936" cy="189.579361" fx="450.908936" fy="189.579361" r="21.166656" gradientTransform="matrix(-0.000000261256,0.117199,0.210958,0.000000152308,-31.5587,-11.291218)">
<stop offset="0" style="stop-color:rgb(0%,0%,0%);stop-opacity:0.313726;"/>
<stop offset="0.222222" style="stop-color:rgb(0%,0%,0%);stop-opacity:0.27451;"/>
<stop offset="1" style="stop-color:rgb(0%,0%,0%);stop-opacity:0;"/>
</radialGradient>
<radialGradient id="radial2" gradientUnits="userSpaceOnUse" cx="450.908936" cy="189.579361" fx="450.908936" fy="189.579361" r="21.166656" gradientTransform="matrix(-0.000000261256,-0.117199,0.210958,-0.000000152308,-31.5587,95.392999)">
<stop offset="0" style="stop-color:rgb(0%,0%,0%);stop-opacity:0.313726;"/>
<stop offset="0.222222" style="stop-color:rgb(0%,0%,0%);stop-opacity:0.27451;"/>
<stop offset="1" style="stop-color:rgb(0%,0%,0%);stop-opacity:0;"/>
</radialGradient>
<radialGradient id="radial3" gradientUnits="userSpaceOnUse" cx="450.908936" cy="189.579361" fx="450.908936" fy="189.579361" r="21.166656" gradientTransform="matrix(0.000000261256,0.117199,-0.210958,0.000000152308,77.203689,-11.291219)">
<stop offset="0" style="stop-color:rgb(0%,0%,0%);stop-opacity:0.313726;"/>
<stop offset="0.222222" style="stop-color:rgb(0%,0%,0%);stop-opacity:0.27451;"/>
<stop offset="1" style="stop-color:rgb(0%,0%,0%);stop-opacity:0;"/>
</radialGradient>
<linearGradient id="linear1" gradientUnits="userSpaceOnUse" x1="169.333328" y1="233.5" x2="169.333328" y2="-168.666656" gradientTransform="matrix(0.093759,0,0,0.093759,-0.992282,20.158175)">
<stop offset="0" style="stop-color:rgb(36.078432%,41.960785%,75.294119%);stop-opacity:1;"/>
<stop offset="1" style="stop-color:rgb(47.450981%,52.549022%,79.607844%);stop-opacity:1;"/>
</linearGradient>
<linearGradient id="linear2" gradientUnits="userSpaceOnUse" x1="243.416641" y1="233.5" x2="243.416672" y2="-168.666672" gradientTransform="matrix(0.093759,0,0,0.093759,0,20.158175)">
<stop offset="0" style="stop-color:rgb(87.843138%,87.843138%,87.843138%);stop-opacity:1;"/>
<stop offset="1" style="stop-color:rgb(93.333334%,93.333334%,93.333334%);stop-opacity:1;"/>
</linearGradient>
<linearGradient id="linear3" gradientUnits="userSpaceOnUse" x1="920" y1="1695.118164" x2="920" y2="175.118118" gradientTransform="matrix(0.0248071,0,0,0.0248071,0,0.00000000000000282)">
<stop offset="0" style="stop-color:rgb(87.843138%,87.843138%,87.843138%);stop-opacity:1;"/>
<stop offset="1" style="stop-color:rgb(93.333334%,93.333334%,93.333334%);stop-opacity:1;"/>
</linearGradient>
</defs>
<g id="surface1">
<path style=" stroke:none;fill-rule:nonzero;fill:url(#linear0);" d="M 7.9375 41.902344 L 37.707031 41.902344 L 37.707031 44.109375 L 7.9375 44.109375 Z M 7.9375 41.902344 "/>
<path style=" stroke:none;fill-rule:nonzero;fill:url(#radial0);" d="M 37.707031 42.050781 L 41.675781 42.050781 L 41.675781 40.066406 L 37.707031 40.066406 Z M 37.707031 42.050781 "/>
<path style=" stroke:none;fill-rule:nonzero;fill:url(#radial1);" d="M 7.9375 42.050781 L 3.96875 42.050781 L 3.96875 44.035156 L 7.9375 44.035156 Z M 7.9375 42.050781 "/>
<path style=" stroke:none;fill-rule:nonzero;fill:url(#radial2);" d="M 7.9375 42.050781 L 3.96875 42.050781 L 3.96875 40.066406 L 7.9375 40.066406 Z M 7.9375 42.050781 "/>
<path style=" stroke:none;fill-rule:nonzero;fill:url(#radial3);" d="M 37.707031 42.050781 L 41.675781 42.050781 L 41.675781 44.035156 L 37.707031 44.035156 Z M 37.707031 42.050781 "/>
<path style=" stroke:none;fill-rule:nonzero;fill:url(#linear1);" d="M 5.953125 4.34375 L 39.691406 4.34375 C 40.789062 4.34375 41.675781 5.234375 41.675781 6.328125 L 41.675781 40.066406 C 41.675781 41.164062 40.789062 42.050781 39.691406 42.050781 L 5.953125 42.050781 C 4.859375 42.050781 3.96875 41.164062 3.96875 40.066406 L 3.96875 6.328125 C 3.96875 5.234375 4.859375 4.34375 5.953125 4.34375 Z M 5.953125 4.34375 "/>
<path style=" stroke:none;fill-rule:nonzero;fill:rgb(90.196079%,90.196079%,90.196079%);fill-opacity:0.392157;" d="M 5.953125 4.5 C 4.855469 4.5 3.96875 5.386719 3.96875 6.484375 L 3.96875 6.734375 C 3.96875 5.632812 4.855469 4.746094 5.953125 4.75 L 39.691406 4.75 C 40.789062 4.746094 41.675781 5.632812 41.675781 6.734375 L 41.675781 6.484375 C 41.675781 5.386719 40.789062 4.5 39.691406 4.5 Z M 5.953125 4.5 "/>
<path style=" stroke:none;fill-rule:nonzero;fill:rgb(0%,0%,0%);fill-opacity:0.196078;" d="M 5.953125 41.898438 C 4.855469 41.898438 3.96875 41.011719 3.96875 39.914062 L 3.96875 39.664062 C 3.96875 40.765625 4.855469 41.648438 5.953125 41.648438 L 39.691406 41.648438 C 40.789062 41.648438 41.675781 40.765625 41.675781 39.664062 L 41.675781 39.914062 C 41.675781 41.011719 40.789062 41.898438 39.691406 41.898438 Z M 5.953125 41.898438 "/>
<path style="fill:none;stroke-width:3;stroke-linecap:round;stroke-linejoin:miter;stroke:rgb(12.941177%,12.941177%,12.941177%);stroke-opacity:1;stroke-miterlimit:4;" d="M 63.493937 -168.671091 L 423.334574 -168.671091 C 435.041789 -168.671091 444.499219 -159.171998 444.499219 -147.506445 L 444.499219 212.334192 C 444.499219 224.041407 435.041789 233.498837 423.334574 233.498837 L 63.493937 233.498837 C 51.828384 233.498837 42.329291 224.041407 42.329291 212.334192 L 42.329291 -147.506445 C 42.329291 -159.171998 51.828384 -168.671091 63.493937 -168.671091 Z M 63.493937 -168.671091 " transform="matrix(0.093759,0,0,0.093759,0,20.158175)"/>
<path style=" stroke:none;fill-rule:nonzero;fill:url(#linear2);" d="M 43.621094 9.257812 C 43.097656 9.273438 42.601562 9.492188 42.238281 9.867188 L 22.742188 29.363281 L 15.230469 22.683594 C 14.695312 22.195312 13.933594 22.03125 13.246094 22.253906 C 12.554688 22.480469 12.039062 23.0625 11.894531 23.773438 C 11.753906 24.484375 12.003906 25.21875 12.554688 25.695312 L 21.484375 33.632812 C 22.28125 34.339844 23.492188 34.304688 24.246094 33.550781 L 45.085938 12.714844 C 45.679688 12.136719 45.859375 11.25 45.535156 10.484375 C 45.210938 9.71875 44.449219 9.234375 43.621094 9.257812 Z M 43.621094 9.257812 "/>
<path style=" stroke:none;fill-rule:nonzero;fill:rgb(100%,100%,100%);fill-opacity:0.954839;" d="M 43.621094 9.257812 C 43.097656 9.273438 42.601562 9.492188 42.238281 9.867188 L 22.742188 29.363281 L 15.230469 22.683594 C 14.585938 22.097656 13.640625 21.988281 12.878906 22.417969 C 12.121094 22.84375 11.726562 23.710938 11.894531 24.566406 C 12.039062 23.855469 12.554688 23.273438 13.246094 23.050781 C 13.933594 22.824219 14.695312 22.988281 15.230469 23.476562 L 22.742188 30.15625 L 42.238281 10.660156 C 42.601562 10.285156 43.097656 10.066406 43.621094 10.050781 C 44.601562 10.019531 45.460938 10.703125 45.65625 11.667969 C 45.777344 11.066406 45.613281 10.441406 45.21875 9.972656 C 44.824219 9.5 44.234375 9.238281 43.621094 9.257812 Z M 43.621094 9.257812 "/>
<path style=" stroke:none;fill-rule:nonzero;fill:rgb(0%,0%,0%);fill-opacity:0.235294;" d="M 41.675781 16.160156 L 24.246094 33.589844 C 23.492188 34.34375 22.28125 34.378906 21.484375 33.671875 L 12.554688 25.730469 C 12.242188 25.460938 12.019531 25.101562 11.921875 24.703125 C 11.730469 25.441406 11.976562 26.226562 12.554688 26.722656 L 21.484375 34.664062 C 22.28125 35.371094 23.492188 35.335938 24.246094 34.582031 L 41.675781 17.152344 Z M 41.675781 16.160156 "/>
<path style="fill:none;stroke-width:3;stroke-linecap:round;stroke-linejoin:round;stroke:rgb(12.941177%,12.941177%,12.941177%);stroke-opacity:1;stroke-miterlimit:4;" d="M 465.247238 -116.259429 C 459.664438 -116.092779 454.373276 -113.759668 450.498646 -109.76005 L 242.56017 98.178426 L 162.442821 26.93523 C 156.735033 21.727394 148.610808 19.977561 141.278175 22.352334 C 133.903879 24.76877 128.404405 30.97651 126.862885 38.55912 C 125.363028 46.141729 128.02944 53.974314 133.903879 59.057162 L 229.144784 143.715744 C 237.643973 151.256691 250.559406 150.881727 258.600305 142.840828 L 480.870746 -79.38795 C 487.203474 -85.554028 489.119958 -95.011458 485.661955 -103.177345 C 482.203952 -111.343232 474.079728 -116.509405 465.247238 -116.259429 Z M 465.247238 -116.259429 " transform="matrix(0.093759,0,0,0.093759,0,20.158175)"/>
<path style=" stroke:none;fill-rule:nonzero;fill:url(#linear3);" d="M 9.921875 7.75 C 8.523438 7.75 7.375 8.898438 7.375 10.296875 L 7.375 36.097656 C 7.375 37.5 8.523438 38.644531 9.921875 38.644531 L 35.722656 38.644531 C 37.125 38.644531 38.269531 37.5 38.269531 36.097656 L 38.269531 22.375 L 37.144531 23.5 L 37.144531 36.097656 C 37.144531 36.894531 36.519531 37.519531 35.722656 37.519531 L 9.921875 37.519531 C 9.125 37.519531 8.5 36.894531 8.5 36.097656 L 8.5 10.296875 C 8.5 9.5 9.125 8.875 9.921875 8.875 L 35.722656 8.875 C 36.519531 8.875 37.144531 9.5 37.144531 10.296875 L 37.144531 12.113281 L 38.269531 10.988281 L 38.269531 10.296875 C 38.269531 8.898438 37.125 7.75 35.722656 7.75 Z M 9.921875 7.75 "/>
<path style=" stroke:none;fill-rule:nonzero;fill:rgb(98.039216%,98.039216%,98.039216%);fill-opacity:1;" d="M 9.921875 7.75 C 8.523438 7.75 7.375 8.898438 7.375 10.296875 L 7.375 10.71875 C 7.375 9.316406 8.523438 8.167969 9.921875 8.167969 L 35.722656 8.167969 C 37.125 8.167969 38.269531 9.316406 38.269531 10.71875 L 38.269531 10.296875 C 38.269531 8.898438 37.125 7.75 35.722656 7.75 Z M 38.269531 22.375 L 37.144531 23.5 L 37.144531 23.921875 L 38.269531 22.796875 Z M 8.5 36.097656 L 8.5 36.515625 C 8.5 37.3125 9.125 37.9375 9.921875 37.9375 L 35.722656 37.9375 C 36.519531 37.9375 37.144531 37.3125 37.144531 36.515625 L 37.144531 36.097656 C 37.144531 36.894531 36.519531 37.519531 35.722656 37.519531 L 9.921875 37.519531 C 9.125 37.519531 8.5 36.894531 8.5 36.097656 Z M 8.5 36.097656 "/>
<path style=" stroke:none;fill-rule:nonzero;fill:rgb(0%,0%,0%);fill-opacity:0.235294;" d="M 9.921875 8.929688 C 9.125 8.929688 8.5 9.554688 8.5 10.351562 L 8.5 11.097656 C 8.5 10.300781 9.125 9.675781 9.921875 9.675781 L 35.722656 9.675781 C 36.519531 9.675781 37.144531 10.300781 37.144531 11.097656 L 37.144531 10.351562 C 37.144531 9.554688 36.519531 8.929688 35.722656 8.929688 Z M 38.269531 11.042969 L 37.144531 12.167969 L 37.144531 12.910156 L 38.269531 11.785156 L 38.269531 11.097656 C 38.269531 11.078125 38.269531 11.0625 38.269531 11.042969 Z M 7.375 36.152344 L 7.375 36.898438 C 7.375 38.296875 8.523438 39.445312 9.921875 39.445312 L 35.722656 39.445312 C 37.125 39.445312 38.269531 38.296875 38.269531 36.898438 L 38.269531 36.152344 C 38.269531 37.554688 37.125 38.699219 35.722656 38.699219 L 9.921875 38.699219 C 8.523438 38.699219 7.375 37.554688 7.375 36.152344 Z M 7.375 36.152344 "/>
<path style="fill:none;stroke-width:11.338583;stroke-linecap:round;stroke-linejoin:round;stroke:rgb(12.941177%,12.941177%,12.941177%);stroke-opacity:1;stroke-miterlimit:4;" d="M 399.961827 312.411128 C 343.589254 312.411128 297.29446 358.705922 297.29446 415.078494 L 297.29446 1455.136708 C 297.29446 1511.666746 343.589254 1557.804075 399.961827 1557.804075 L 1440.020041 1557.804075 C 1496.550079 1557.804075 1542.687407 1511.666746 1542.687407 1455.136708 L 1542.687407 901.961159 L 1497.337405 947.311161 L 1497.337405 1455.136708 C 1497.337405 1487.259627 1472.142959 1512.454073 1440.020041 1512.454073 L 399.961827 1512.454073 C 367.838908 1512.454073 342.644462 1487.259627 342.644462 1455.136708 L 342.644462 415.078494 C 342.644462 382.955576 367.838908 357.76113 399.961827 357.76113 L 1440.020041 357.76113 C 1472.142959 357.76113 1497.337405 382.955576 1497.337405 415.078494 L 1497.337405 488.299852 L 1542.687407 442.94985 L 1542.687407 415.078494 C 1542.687407 358.705922 1496.550079 312.411128 1440.020041 312.411128 Z M 399.961827 312.411128 " transform="matrix(0.0248071,0,0,0.0248071,0,0)"/>
</g>
</svg>
